;FLAVOR:Marlin
;TIME:1638
;Filament used: 0.787507m
;Layer height: 0.2
;MINX:74.504
;MINY:96.522
;MINZ:0.2
;MAXX:160.506
;MAXY:138.474
;MAXZ:10
;Generated with Cura_SteamEngine 5.2.1
M140 S60
M105
M190 S60
M104 S210
M105
M109 S210
M82 ;absolute extrusion mode
; Ender 3 Custom Start G-code
G92 E0 ; Reset Extruder
G28 ; Home all axes
G1 Z2.0 F3000 ; Move Z Axis up little to prevent scratching of Heat Bed
G1 X0.1 Y20 Z0.3 F5000.0 ; Move to start position
G1 X0.1 Y200.0 Z0.3 F1500.0 E15 ; Draw the first line
G1 X0.4 Y200.0 Z0.3 F5000.0 ; Move to side a little
G1 X0.4 Y20 Z0.3 F1500.0 E30 ; Draw the second line
G92 E0 ; Reset Extruder
G1 Z2.0 F3000 ; Move Z Axis up little to prevent scratching of Heat Bed
G1 X5 Y20 Z0.3 F5000.0 ; Move over to prevent blob squish
G92 E0
G92 E0
G1 F1500 E-6.5
;LAYER_COUNT:50
;LAYER:0
M107
G0 F6000 X79.302 Y107.925 Z0.2
;TYPE:SKIRT
G1 F1500 E0
G1 F1200 X80.249 Y107.28 E0.03811
G1 X80.535 Y107.106 E0.04924
G1 X81.356 Y106.653 E0.08043
G1 X82.274 Y106.248 E0.1138
G1 X82.622 Y106.113 E0.12622
G1 X83.51 Y105.811 E0.15741
G1 X84.262 Y105.619 E0.18323
G1 X84.639 Y105.537 E0.19606
G1 X85.159 Y105.437 E0.21367
G1 X85.812 Y105.332 E0.23567
G1 X147.365 Y96.693 E2.303
G1 X148.094 Y96.6 E2.32744
G1 X149.029 Y96.522 E2.35865
G1 X149.966 Y96.522 E2.38981
G1 X150.901 Y96.603 E2.42103
G1 X151.825 Y96.764 E2.45222
G1 X152.732 Y97.002 E2.48341
G1 X153.615 Y97.317 E2.51459
G1 X154.469 Y97.705 E2.54579
G1 X155.286 Y98.165 E2.57697
G1 X156.061 Y98.694 E2.60818
G1 X156.789 Y99.286 E2.63939
G1 X157.463 Y99.938 E2.67058
G1 X158.079 Y100.645 E2.70177
G1 X158.633 Y101.402 E2.73297
G1 X159.12 Y102.203 E2.76415
G1 X159.537 Y103.043 E2.79534
G1 X159.881 Y103.915 E2.82652
G1 X160.15 Y104.814 E2.85773
G1 X160.341 Y105.732 E2.88892
G1 X160.453 Y106.663 E2.9201
G1 X160.484 Y107.282 E2.94072
G1 X160.505 Y108.285 E2.97409
G1 X160.506 Y126.918 E3.59382
G1 X160.496 Y127.631 E3.61754
G1 X160.443 Y128.568 E3.64875
G1 X160.31 Y129.496 E3.67993
G1 X160.099 Y130.41 E3.71113
G1 X159.81 Y131.302 E3.74232
G1 X159.447 Y132.167 E3.77352
G1 X159.011 Y132.997 E3.8047
G1 X158.507 Y133.788 E3.8359
G1 X157.936 Y134.532 E3.86709
G1 X157.305 Y135.226 E3.89829
G1 X156.616 Y135.863 E3.9295
G1 X155.876 Y136.438 E3.96067
G1 X155.089 Y136.949 E3.99188
G1 X154.262 Y137.391 E4.02307
G1 X153.4 Y137.761 E4.05427
G1 X152.51 Y138.056 E4.08545
G1 X151.598 Y138.274 E4.11664
G1 X150.671 Y138.414 E4.14782
G1 X149.735 Y138.474 E4.17902
G1 X148.797 Y138.455 E4.21022
G1 X148.196 Y138.4 E4.23029
G1 X147.163 Y138.277 E4.26489
G1 X86.02 Y129.695 E6.31845
G1 X85.174 Y129.563 E6.34693
G1 X84.336 Y129.399 E6.37533
G1 X84.053 Y129.332 E6.385
G1 X83.15 Y129.077 E6.41621
G1 X82.62 Y128.888 E6.43493
G1 X82.289 Y128.76 E6.44673
G1 X81.429 Y128.384 E6.47795
G1 X80.582 Y127.923 E6.51002
G1 X80.303 Y127.755 E6.52086
G1 X79.521 Y127.238 E6.55204
G1 X78.595 Y126.487 E6.59169
G1 X78.363 Y126.277 E6.6021
G1 X77.695 Y125.619 E6.63328
G1 X77.086 Y124.906 E6.66447
G1 X76.628 Y124.277 E6.69035
G1 X76.468 Y124.04 E6.69986
G1 X75.977 Y123.241 E6.73105
G1 X75.556 Y122.403 E6.76224
G1 X75.116 Y121.262 E6.80292
G1 X75.036 Y121.014 E6.81159
G1 X74.787 Y120.11 E6.84277
G1 X74.615 Y119.188 E6.87397
G1 X74.522 Y118.255 E6.90515
G1 X74.504 Y117.407 E6.93336
G1 X74.541 Y116.469 E6.96459
G1 X74.657 Y115.539 E6.99576
G1 X74.852 Y114.621 E7.02697
G1 X75.048 Y113.949 E7.05025
G1 X75.131 Y113.695 E7.05914
G1 X75.46 Y112.817 E7.09033
G1 X75.863 Y111.97 E7.12152
G1 X76.447 Y110.992 E7.15941
G1 X76.603 Y110.759 E7.16874
G1 X77.157 Y110.003 E7.19991
G1 X77.774 Y109.296 E7.23112
G1 X78.358 Y108.726 E7.25826
G1 X78.581 Y108.524 E7.26827
G1 X79.302 Y107.925 E7.29945
G0 F6000 X79.558 Y108.233
G1 F1200 X80.457 Y107.621 E7.33562
G1 X80.743 Y107.447 E7.34675
G1 X81.549 Y107.003 E7.37736
G1 X82.418 Y106.621 E7.40893
G1 X82.766 Y106.486 E7.42135
G1 X83.638 Y106.19 E7.45197
G1 X84.347 Y106.01 E7.4763
G1 X84.724 Y105.928 E7.48914
G1 X85.225 Y105.832 E7.5061
G1 X85.868 Y105.728 E7.52777
G1 X147.416 Y97.09 E9.59492
G1 X148.145 Y96.997 E9.61937
G1 X149.062 Y96.92 E9.64997
G1 X149.983 Y96.924 E9.68061
G1 X150.9 Y97.007 E9.71123
G1 X151.806 Y97.169 E9.74184
G1 X152.695 Y97.409 E9.77247
G1 X153.559 Y97.726 E9.80308
G1 X154.393 Y98.116 E9.8337
G1 X155.19 Y98.577 E9.86433
G1 X155.943 Y99.106 E9.89493
G1 X156.649 Y99.698 E9.92558
G1 X157.3 Y100.349 E9.9562
G1 X157.892 Y101.054 E9.98682
G1 X158.42 Y101.808 E10.01743
G1 X158.882 Y102.604 E10.04804
G1 X159.272 Y103.438 E10.07867
G1 X159.589 Y104.303 E10.10931
G1 X159.829 Y105.192 E10.13993
G1 X159.991 Y106.098 E10.17055
G1 X160.084 Y107.29 E10.21031
G1 X160.105 Y108.293 E10.24368
G1 X160.106 Y126.913 E10.86298
G1 X160.096 Y127.626 E10.8867
G1 X160.043 Y128.545 E10.91732
G1 X159.911 Y129.456 E10.94793
G1 X159.7 Y130.352 E10.97855
G1 X159.412 Y131.226 E11.00916
G1 X159.049 Y132.073 E11.03981
G1 X158.614 Y132.884 E11.07042
G1 X158.111 Y133.655 E11.10103
G1 X157.542 Y134.379 E11.13166
G1 X156.913 Y135.051 E11.16227
G1 X156.228 Y135.666 E11.19289
G1 X155.492 Y136.219 E11.22351
G1 X154.71 Y136.706 E11.25415
G1 X153.89 Y137.124 E11.28477
G1 X153.036 Y137.469 E11.3154
G1 X152.156 Y137.738 E11.34601
G1 X151.256 Y137.93 E11.37661
G1 X150.342 Y138.043 E11.40724
G1 X149.422 Y138.077 E11.43786
G1 X148.244 Y138.003 E11.47712
G1 X147.211 Y137.88 E11.51172
G1 X86.082 Y129.3 E13.56481
G1 X85.236 Y129.168 E13.59329
G1 X84.428 Y129.01 E13.62067
G1 X84.145 Y128.943 E13.63035
G1 X83.259 Y128.692 E13.66097
G1 X82.764 Y128.515 E13.67846
G1 X82.433 Y128.387 E13.69026
G1 X81.589 Y128.017 E13.72091
G1 X80.788 Y127.581 E13.75125
G1 X80.509 Y127.413 E13.76208
G1 X79.742 Y126.904 E13.79269
G1 X78.864 Y126.191 E13.83031
G1 X78.632 Y125.981 E13.84072
G1 X77.976 Y125.334 E13.87137
G1 X77.38 Y124.632 E13.90199
G1 X76.96 Y124.053 E13.92579
G1 X76.8 Y123.816 E13.9353
G1 X76.318 Y123.031 E13.96593
G1 X75.907 Y122.208 E13.99653
G1 X75.497 Y121.139 E14.03461
G1 X75.417 Y120.891 E14.04328
G1 X75.173 Y120.004 E14.07388
G1 X75.006 Y119.098 E14.10452
G1 X74.919 Y118.182 E14.13512
G1 X74.904 Y117.405 E14.16097
G1 X74.941 Y116.485 E14.19159
G1 X75.057 Y115.572 E14.2222
G1 X75.252 Y114.672 E14.25283
G1 X75.428 Y114.074 E14.27357
G1 X75.511 Y113.82 E14.28245
G1 X75.835 Y112.958 E14.31308
G1 X76.232 Y112.127 E14.34371
G1 X76.779 Y111.215 E14.37908
G1 X76.935 Y110.982 E14.38841
G1 X77.48 Y110.24 E14.41903
G1 X78.087 Y109.548 E14.44965
G1 X78.627 Y109.023 E14.4747
G1 X78.85 Y108.821 E14.4847
G1 X79.558 Y108.233 E14.51531
G0 F6000 X79.814 Y108.541
G1 F1200 X80.664 Y107.963 E14.5495
G1 X80.95 Y107.789 E14.56064
G1 X81.742 Y107.354 E14.59069
G1 X82.563 Y106.993 E14.62052
G1 X82.911 Y106.858 E14.63294
G1 X83.767 Y106.569 E14.66298
G1 X84.432 Y106.401 E14.6858
G1 X84.809 Y106.319 E14.69863
G1 X85.291 Y106.226 E14.71496
G1 X85.923 Y106.124 E14.73625
G1 X147.466 Y97.487 E16.80324
G1 X148.195 Y97.394 E16.82768
G1 X149.095 Y97.319 E16.85772
G1 X149.998 Y97.325 E16.88775
G1 X150.897 Y97.41 E16.91779
G1 X151.785 Y97.575 E16.94783
G1 X152.655 Y97.817 E16.97786
G1 X153.501 Y98.135 E17.00792
G1 X154.314 Y98.527 E17.03794
G1 X155.09 Y98.989 E17.06798
G1 X155.822 Y99.518 E17.09802
G1 X156.504 Y100.11 E17.12806
G1 X157.131 Y100.76 E17.15809
G1 X157.699 Y101.463 E17.18815
G1 X158.201 Y102.213 E17.21817
G1 X158.636 Y103.005 E17.24823
G1 X158.999 Y103.832 E17.27826
G1 X159.287 Y104.687 E17.30827
G1 X159.499 Y105.565 E17.33831
G1 X159.631 Y106.459 E17.36837
G1 X159.684 Y107.298 E17.39633
G1 X159.705 Y108.301 E17.4297
G1 X159.706 Y126.907 E18.04854
G1 X159.696 Y127.62 E18.07225
G1 X159.643 Y128.522 E18.10231
G1 X159.511 Y129.415 E18.13233
G1 X159.301 Y130.293 E18.16236
G1 X159.013 Y131.149 E18.19239
G1 X158.651 Y131.977 E18.22245
G1 X158.217 Y132.769 E18.25249
G1 X157.715 Y133.519 E18.28251
G1 X157.148 Y134.222 E18.31255
G1 X156.521 Y134.873 E18.34261
G1 X155.84 Y135.465 E18.37262
G1 X155.108 Y135.995 E18.40268
G1 X154.333 Y136.458 E18.4327
G1 X153.52 Y136.85 E18.46272
G1 X152.675 Y137.169 E18.49276
G1 X151.805 Y137.412 E18.52281
G1 X150.917 Y137.578 E18.55285
G1 X150.018 Y137.664 E18.58289
G1 X149.115 Y137.67 E18.61293
G1 X148.291 Y137.605 E18.64042
G1 X147.046 Y137.455 E18.68213
G1 X86.144 Y128.905 E20.7276
G1 X85.298 Y128.773 E20.75608
G1 X84.52 Y128.621 E20.78244
G1 X84.237 Y128.554 E20.79212
G1 X83.368 Y128.307 E20.82216
G1 X82.577 Y128.013 E20.85023
G1 X81.75 Y127.651 E20.88026
G1 X80.994 Y127.238 E20.90891
G1 X80.715 Y127.07 E20.91974
G1 X79.963 Y126.57 E20.94978
G1 X79.132 Y125.894 E20.98541
G1 X78.9 Y125.684 E20.99581
G1 X78.258 Y125.049 E21.02585
G1 X77.675 Y124.36 E21.05587
G1 X77.291 Y123.829 E21.07766
G1 X77.131 Y123.592 E21.08717
G1 X76.659 Y122.822 E21.11721
G1 X76.258 Y122.013 E21.14724
G1 X75.878 Y121.016 E21.18273
G1 X75.798 Y120.768 E21.1914
G1 X75.559 Y119.898 E21.22141
G1 X75.398 Y119.009 E21.25146
G1 X75.305 Y117.675 E21.29593
G1 X75.304 Y117.404 E21.30495
G1 X75.341 Y116.501 E21.335
G1 X75.457 Y115.606 E21.36502
G1 X75.652 Y114.724 E21.39507
G1 X75.892 Y113.944 E21.42221
G1 X76.21 Y113.099 E21.45224
G1 X76.602 Y112.285 E21.48229
G1 X77.111 Y111.437 E21.51518
G1 X77.267 Y111.204 E21.52451
G1 X77.802 Y110.477 E21.55453
G1 X78.4 Y109.8 E21.58457
G1 X78.895 Y109.319 E21.60753
G1 X79.118 Y109.117 E21.61754
G1 X79.814 Y108.541 E21.64759
G1 F1500 E15.14759
;MESH:Cuerpo1.stl
G0 F6000 X85.483 Y116.204
G0 X86.679 Y118.059
;TYPE:WALL-INNER
G1 F1500 E21.64759
G1 F1387.3 X86.551 Y117.935 E21.65271
G1 X86.463 Y117.766 E21.6582
G1 X86.42 Y117.366 E21.66977
G1 X86.559 Y117.061 E21.67941
G1 X86.674 Y116.944 E21.68413
G1 X86.31 Y117.125 E21.69583
G1 X86.175 Y117.25 E21.70112
G1 X86.067 Y117.452 E21.70771
G1 X86.095 Y117.633 E21.71298
G1 X86.31 Y117.875 E21.72229
G1 X86.679 Y118.059 E21.73416
G1 F1500 E15.23416
G0 F6000 X95.827 Y119.347
G0 X97.803 Y116.672
;TYPE:WALL-OUTER
G1 F1500 E21.73416
G1 F1927.7 X97.49 Y116.687 E21.74064
G1 F1920 X97.161 Y116.648 E21.74753
G1 F1860.5 X96.894 Y116.567 E21.75352
G1 F1732.9 X96.61 Y116.419 E21.76089
G1 F1558.4 X96.401 Y116.229 E21.76813
G1 F1188.1 X96.212 Y115.926 E21.78012
G1 F910.8 X96.235 Y115.778 E21.78669
G1 F887.2 X96.37 Y115.726 E21.7932
G1 F944.9 X98.617 Y115.41 E21.88904
G1 F890.5 X98.805 Y115.418 E21.89748
G1 F910.8 X98.841 Y115.511 E21.90185
G1 F1121.5 X98.859 Y115.836 E21.91343
G1 F1326 X98.788 Y116.094 E21.92149
G1 F1459 X98.616 Y116.317 E21.92919
G1 F1638.2 X98.39 Y116.481 E21.93599
G1 F1784.4 X98.113 Y116.602 E21.94275
G1 F1882.4 X97.803 Y116.672 E21.94949
G1 F1500 E15.44949
G0 F6000 X97.393 Y119.587
G0 X98.826 Y119.58
G1 F1500 E21.94949
G1 F973.6 X98.66 Y119.595 E21.95632
G1 F943 X96.414 Y119.282 E22.0523
G1 F890.5 X96.235 Y119.222 E22.06076
G1 F939.3 X96.228 Y119.071 E22.06719
G1 F1200 X96.293 Y118.949 E22.07178
G1 F1415.9 X96.4 Y118.772 E22.07761
G1 F1563.5 X96.627 Y118.569 E22.08539
G1 F1732.9 X96.875 Y118.439 E22.09184
G1 F1846.2 X97.153 Y118.354 E22.09812
G1 F1920 X97.492 Y118.313 E22.10522
G1 F1927.7 X97.803 Y118.328 E22.11167
G1 F1882.4 X98.113 Y118.398 E22.1184
G1 F1784.4 X98.39 Y118.519 E22.12517
G1 F1638.2 X98.616 Y118.683 E22.13197
G1 F1463.4 X98.788 Y118.906 E22.13965
G1 F1326 X98.859 Y119.165 E22.14773
G1 F1134.8 X98.826 Y119.58 E22.16238
G1 F1500 E15.66238
G0 F6000 X98.787 Y119.864
G0 X106.12 Y120.893
G1 F1500 E22.16238
G0 F6000 X106.196 Y120.349
G1 F724 X106.367 Y120.079 E22.18
G1 F810.8 X106.635 Y119.87 E22.19672
G1 F866.4 X106.906 Y119.735 E22.21067
G1 F923.1 X107.253 Y119.641 E22.22622
G1 F960 X107.583 Y119.605 E22.24002
G1 F963.9 X107.912 Y119.62 E22.25365
G1 F946.7 X108.223 Y119.684 E22.26704
G1 F916 X108.521 Y119.795 E22.2809
G1 F846.6 X108.803 Y119.981 E22.29682
G1 F761.9 X108.935 Y120.116 E22.30671
G1 F1500 E15.80671
G0 F6000 X109.238 Y119.101
G0 X108.787 Y116.111
G0 X108.479 Y115.066
G1 F1500 E22.30671
G1 F1791 X108.186 Y115.192 E22.31382
G1 F1889.8 X107.894 Y115.256 E22.32013
G1 F1927.7 X107.581 Y115.271 E22.32662
G1 F1920 X107.253 Y115.232 E22.33349
G1 F1860.5 X106.985 Y115.151 E22.33949
G1 F1739.1 X106.702 Y115.003 E22.34682
G1 F1558.4 X106.492 Y114.813 E22.35408
G1 F1191.1 X106.303 Y114.51 E22.36604
G1 F910.8 X106.326 Y114.361 E22.37265
G1 F887.2 X106.462 Y114.309 E22.3792
G1 F946.7 X108.708 Y113.993 E22.47482
G1 F890.5 X108.896 Y114.001 E22.48325
G1 F907.4 X108.933 Y114.093 E22.48761
G1 F1118.9 X108.951 Y114.419 E22.49926
G1 F1326 X108.88 Y114.678 E22.50734
G1 F1476.9 X108.675 Y114.927 E22.51606
G1 F1660.9 X108.479 Y115.066 E22.52183
G1 F1500 E16.02183
G0 F6000 X109.237 Y115.9
G0 X117.477 Y114.887
G0 X117.673 Y113.854
G1 F1500 E22.52183
G1 F1920 X117.344 Y113.815 E22.52872
G1 F1853.3 X117.051 Y113.725 E22.53532
G1 F1726.6 X116.792 Y113.587 E22.54211
G1 F1558.4 X116.583 Y113.397 E22.54934
G1 F1191.1 X116.394 Y113.094 E22.56131
G1 F910.8 X116.417 Y112.945 E22.56791
G1 F887.2 X116.553 Y112.893 E22.57446
G1 F946.7 X118.8 Y112.577 E22.67012
G1 F890.5 X118.988 Y112.585 E22.67855
G1 F910.8 X119.024 Y112.678 E22.68292
G1 F1132.1 X119.038 Y113.054 E22.69619
G1 F1375.4 X118.938 Y113.312 E22.70422
G1 F1495.3 X118.799 Y113.482 E22.71008
G1 F1632.7 X118.57 Y113.65 E22.71702
G1 F1784.4 X118.278 Y113.775 E22.72413
G1 F1889.8 X117.985 Y113.839 E22.73046
G1 F1927.7 X117.673 Y113.854 E22.73693
G1 F1500 E16.23693
G0 F6000 X117.669 Y114.889
G0 X115.549 Y121.046
G0 X119.01 Y122.413
G1 F1500 E22.73693
G1 F977.6 X118.844 Y122.428 E22.74373
G1 F944.9 X116.596 Y122.115 E22.83961
G1 F890.5 X116.417 Y122.055 E22.84807
G1 F837.7 X116.348 Y121.914 E22.85555
G1 X116.374 Y121.736 E22.86412
G1 F1039 X116.475 Y121.782 E22.86838
G1 F1415.9 X116.582 Y121.604 E22.87424
G1 F1558.4 X116.793 Y121.413 E22.88153
G1 F1726.6 X117.058 Y121.271 E22.88847
G1 F1846.2 X117.336 Y121.187 E22.89475
G1 F1920 X117.658 Y121.147 E22.9015
G1 F1935.5 X117.985 Y121.161 E22.90825
G1 F1897.2 X118.278 Y121.225 E22.91456
G1 F1791 X118.57 Y121.35 E22.92163
G1 F1655.2 X118.785 Y121.503 E22.928
G1 F1533.5 X118.966 Y121.722 E22.93539
G1 F1387.3 X119.043 Y121.978 E22.94308
G1 F1145.6 X119.01 Y122.413 E22.95828
G1 F1500 E16.45828
G0 F6000 X118.971 Y122.697
G0 X126.304 Y123.726
G1 F1500 E22.95828
G0 F6000 X126.38 Y123.179
G1 F722.9 X126.55 Y122.911 E22.97581
G1 F808.1 X126.817 Y122.702 E22.99255
G1 F864.9 X127.088 Y122.568 E23.0065
G1 F923.1 X127.435 Y122.474 E23.02205
G1 F960 X127.766 Y122.438 E23.03589
G1 F963.9 X128.094 Y122.453 E23.04949
G1 F946.7 X128.406 Y122.516 E23.06291
G1 F916 X128.707 Y122.629 E23.07691
G1 F845.1 X128.984 Y122.812 E23.09259
G1 F758.3 X129.131 Y122.965 E23.10376
G1 F1500 E16.60376
G0 F6000 X129.202 Y124.032
G0 X136.6 Y124.888
G1 F1500 E23.10376
G1 F941.2 X136.593 Y124.736 E23.11021
G1 F1240.3 X136.765 Y124.437 E23.12131
G1 F1563.5 X136.992 Y124.234 E23.12909
G1 F1732.9 X137.24 Y124.104 E23.13554
G1 F1839.1 X137.52 Y124.019 E23.14189
G1 F1912.4 X137.857 Y123.978 E23.14897
G1 F1927.7 X138.168 Y123.993 E23.15542
G1 F1889.8 X138.478 Y124.063 E23.16213
G1 F1784.4 X138.755 Y124.184 E23.16889
G1 F1660.9 X138.966 Y124.334 E23.17511
G1 F1538.5 X139.149 Y124.555 E23.18256
G1 F1387.3 X139.225 Y124.812 E23.19027
G1 F1145.6 X139.192 Y125.246 E23.20543
G1 F979.6 X139.026 Y125.26 E23.21222
G1 F944.9 X136.779 Y124.948 E23.30804
G1 F890.5 X136.6 Y124.888 E23.31651
G0 F6000 X136.561 Y125.166
G0 X148.433 Y126.758
G0 X148.546 Y126.515
;TYPE:WALL-INNER
G1 F1243.5 X148.234 Y126.722 E23.32852
G1 X148.914 Y126.816 E23.35056
G1 F1297.3 X148.93 Y126.398 E23.36343
G1 F1363.6 X148.932 Y108.732 E23.88049
G1 F1304.3 X148.914 Y108.405 E23.89051
G1 F1243.5 X148.914 Y108.184 E23.8976
G1 X148.185 Y108.287 E23.92123
G1 X148.546 Y108.485 E23.93445
G1 F1304.3 X148.582 Y108.732 E23.94209
